images/apps.svg

<?xml version="1.0" encoding="utf-8"?>
<!-- Generator: Adobe Illustrator 22.0.1, SVG Export Plug-In . SVG Version: 6.00 Build 0)  -->
<svg version="1.1" id="Capa_1" xmlns="http://www.w3.org/2000/svg" xmlns:xlink="http://www.w3.org/1999/xlink" x="0px" y="0px"
	 viewBox="0 0 24 24" style="enable-background:new 0 0 24 24;" xml:space="preserve">
<style type="text/css">
	.st0{fill:#9E9A9A;}
</style>
<path class="st0" d="M16,20h4v-4h-4 M16,14h4v-4h-4 M10,8h4V4h-4 M16,8h4V4h-4 M10,14h4v-4h-4 M4,14h4v-4H4 M4,20h4v-4H4 M10,20h4
	v-4h-4 M4,8h4V4H4V8z"/>
</svg>

<?xml version="1.0" encoding="UTF-8"?><!DOCTYPE svg PUBLIC "-//W3C//DTD SVG 1.1//EN" "http://www.w3.org/Graphics/SVG/1.1/DTD/svg11.dtd"><svg xmlns="http://www.w3.org/2000/svg" xmlns:xlink="http://www.w3.org/1999/xlink" version="1.1" width="24" height="24" viewBox="0 0 24 24"><path fill="#fff" d="M16,20H20V16H16M16,14H20V10H16M10,8H14V4H10M16,8H20V4H16M10,14H14V10H10M4,14H8V10H4M4,20H8V16H4M10,20H14V16H10M4,8H8V4H4V8Z" /></svg>
